X:1
T:Jesus Himself
T:Jesus Himself
T:Carl Harold Lowden
T:Mary Brainerd Smith, 1917
T:Public Domain Courtesy of the Cyber Hymnal™
C:Carl Harold Lowden
Z:Public Domain
Z:Courtesy of the Cyber Hymnal™
%%score ( 1 2 ) ( 3 4 )
L:1/8
M:3/4
K:G
V:1 treble 
V:2 treble 
V:3 bass 
V:4 bass 
V:1
 [B,D]2 | [DB]4 [CA]2 | [Ec]4 [DB]2 | [DB]4 [CA]2 | [B,G]4 [=FG]2 | [EG]4 [Ec]2 | [EG]4 [_EA]2 | %7
w: 1.~The|bless- ings|Je- sus|gives to|me Are|in His|love out-|
w: 2.~My|life, my|strength are|from His|hand, Gifts|un- de-|served and|
w: 3.~He|gave me|home with|all its|love And|life’s true|friend- ship|
w: 4.~His|gift, the|gold- en|sun- shine|glad, Earth|joys He|doth be-|
w: 5.~And|when I|reach that|ci- ty|fair, A-|gleam with|pearl and|
 [DB]6- | [DB]4 [Bd]2 | [Ac]4 [FA]2 | [FA]4 [ce]2 | [Bd]4 [GB]2 | [GB]4 [AB]2 | [FA]4 [Fd]2 | %14
w: poured,|* But|dear- er|far than|these could|be Is|He Him-|
w: free,|* Yet|more than|e’en the|life He|planned Is|He Him-|
w: here,|* Yet|as a|friend all|friends a-|bove, The|Christ Him-|
w: stow,|* Yet|sweet- er,|gladd- der|far it|is The|Christ Him-|
w: gold,|* ’Twill|be Heav’n’s|joy to|greet Him|there, And|He Him-|
 [Ge]4 [E^c]2 | [Fd]6- | [Fd]4 z2 ||"^Refrain" [Gd]2 [G^c]2 [Gd]2 | [GB]4 [DG]2 | [DF]4 [Fc]2 | %20
w: self, my|Lord.|||||
w: self to|me.|||||
w: self is|dear.||Je- sus Him-|self with|me doth|
w: self to|know.|||||
w: self be-|hold.|||||
 [Fc]6 | [Ac]2 [^GB]2 [Ac]2 | [FA]4 [DF]2 | [EG]4 [GB]2 | [Gd]6 | G2 [FA]2 [=FB]2 | [Ec]6 | %27
w: |||||||
w: |||||||
w: bide,|More, more to|me than|all be-|side,|Je- sus Him-|self,|
w: |||||||
w: |||||||
 A2 [^GB]2 [=G^c]2 | [Fd]6 | [Gd]2 [G^c]2 [Gd]2 | [Ge]4 [Gc]2 | [GB]4 [FA]2 | G4 |] %33
w: ||||||
w: ||||||
w: Je- sus Him-|self,|Je- sus Him-|self, my|friend and|guide.|
w: ||||||
w: ||||||
V:2
 x2 | x6 | x6 | x6 | x6 | x6 | x6 | x6 | x6 | x6 | x6 | x6 | x6 | x6 | x6 | x6 | x6 || x6 | x6 | %19
 x6 | x6 | x6 | x6 | x6 | x6 | G2 x4 | x6 | A2 x4 | x6 | x6 | x6 | x6 | G4 |] %33
V:3
 z2 | G,,2 G,4 | G,,2 G,4 | D,2 E,2 F,2 | G,2 D,2 B,,2 | C,2 C4 | C,2 C4 | (G,,2 B,,2 D,2 | %8
 G,4) z2 | D,2 D4 | D,2 D4 | G,2 D4 | G,2 D4 | A,2 F,2 D,2 | A,,2 A,4 | (D2 A,2 F,2 | [D,C]4) z2 || %17
 [G,B,]2 [G,^A,]2 [G,B,]2 | [G,D]4 [G,B,]2 | [A,C]4 [D,D]2 | [D,D]6 | [D,D]2 [D,D]2 [D,D]2 | %22
 [D,D]4 [D,C]2 | [G,B,]4 [G,D]2 | [G,B,]6 | [G,B,]2 [G,C]2 [G,D]2 | [C,C]6 | %27
 [A,^C]2 [A,D]2 [A,E]2 | D6 | [B,D]2 [^A,E]2 [B,D]2 | C4 [A,E]2 | [D,D]4 [D,C]2 | [G,B,]4 |] %33
V:4
 x2 | x6 | x6 | x6 | x6 | x6 | x6 | x6 | x6 | x6 | x6 | x6 | x6 | x6 | x6 | x6 | x6 || x6 | x6 | %19
 x6 | x6 | x6 | x6 | x6 | x6 | x6 | x6 | x6 | (D,4 C2) | x6 | C4 x2 | x6 | x4 |] %33

